X:2838
T:\AA karda og spinna
T:Spinning song
C:anon.
O:Norway
N:Sven Moren's lyrics might still be copyright protected.
Z:Transcribed by Frank Nordberg - http://www.musicaviva.com
F:http://abc.musicaviva.com/tunes/norway/aa-karda-og-f/aa-karda-og-f-1.abc
M:3/4
L:1/4
K:F
Hc|"C7"CDE|"F"FFcS|"C7"CDE|"F"FFSA/B/|
"F"ccA/B/|"F"ccSF|"F/C"AA"C"G|"F"c2SA/B/|
"F"ccA/B/|"F"ccSF/F/|"F/C"AA"C"G|"F"F2|]
W:
W:
W:  From Musica Viva - http://www.musicaviva.com
W:  the Internet center for free sheet music downloads.
